X: 14
T:Coleman's March
M:C
L:1/8
R:March
S:https://tunearch.org/wiki/Coleman%27s_March_(1)
K:D
DEFA |: d4 d4 | (c2 c)d cBAc | (B2 B)c dc B2 | (A4 A)GFG | 
(AB) d2 (c2 c)A | BcBA FE D2 | (E2 D)F GF TE2 |1 D2 DE DEFA :|2 D2 DF ABAG || 
|: F4 F4 | G4 G4 | (A2 A)B AFDF | (E4 E2) FG | 
AB d2 (c2 c)A | BcBA FE D2 | (E2 E)F GF TE2 |1 D2 DF ABAG :|2 D8 ||

